tools/download-figma-icons/icons/outlined-medium/lkw.svg

<svg width="24" height="24" viewBox="0 0 24 24" fill="none" xmlns="http://www.w3.org/2000/svg">
<path d="M23.9295 11.6837C23.9272 11.6785 23.928 11.6717 23.9257 11.6665L21.9082 7.51884C21.6554 7.04108 21.1507 6.74482 20.5911 6.74482H15.7512V5.9798C15.7512 5.16377 15.0785 4.5 14.2512 4.5H1.4873C0.667521 4.5 0 5.16377 0 5.9798V15.8314C0 16.6474 0.667521 17.3119 1.4873 17.3119H2.81034C3.01959 18.5517 4.09288 19.5012 5.39117 19.5012C6.71196 19.5012 7.79724 18.5172 7.97875 17.2451H16.538C16.7218 18.5142 17.8063 19.4952 19.1248 19.4952C20.4434 19.4952 21.5279 18.5142 21.7117 17.2451H22.5C23.313 17.2451 24 16.5581 24 15.7451V11.995C24 11.8832 23.9722 11.7797 23.9287 11.6845L23.9295 11.6837ZM22.0522 11.2442H18.7506V8.21412L20.5701 8.19762L22.0522 11.2442ZM1.4873 6.00005L14.2504 5.9798V15.7451H7.74999C7.32623 14.8646 6.4322 14.2511 5.39117 14.2511C4.32089 14.2511 3.40211 14.8968 2.99334 15.8171L1.4993 15.8321L1.48655 6.00155L1.4873 6.00005ZM5.39117 18.0004C4.7709 18.0004 4.26613 17.4957 4.26613 16.8754C4.26613 16.2551 4.7709 15.7504 5.39117 15.7504C6.01144 15.7504 6.5162 16.2551 6.5162 16.8754C6.5162 17.4957 6.01144 18.0004 5.39117 18.0004ZM19.1256 17.9944C18.5053 17.9944 18.0006 17.4897 18.0006 16.8694C18.0006 16.2491 18.5053 15.7444 19.1256 15.7444C19.7459 15.7444 20.2506 16.2491 20.2506 16.8694C20.2506 17.4897 19.7459 17.9944 19.1256 17.9944ZM21.4874 15.7444C21.0644 14.8608 20.1689 14.2443 19.1256 14.2443C18.0823 14.2443 17.1868 14.8608 16.7638 15.7444H15.7505V8.24187L17.2505 8.22837V11.995C17.2505 12.4097 17.5858 12.745 18.0006 12.745H22.5007V15.7451H21.4874V15.7444Z" fill="black"/>
</svg>

<svg xmlns="http://www.w3.org/2000/svg" width="24" height="24" fill="none" viewBox="0 0 24 24"><path fill="currentColor" d="M23.93 11.684q-.003-.008-.004-.018L21.908 7.52a1.48 1.48 0 0 0-1.317-.774h-4.84V5.98c0-.816-.672-1.48-1.5-1.48H1.487C.667 4.5 0 5.164 0 5.98v9.851c0 .816.668 1.48 1.487 1.48H2.81a2.62 2.62 0 0 0 2.581 2.19 2.62 2.62 0 0 0 2.588-2.256h8.559a2.62 2.62 0 0 0 2.587 2.25 2.62 2.62 0 0 0 2.587-2.25h.788c.813 0 1.5-.687 1.5-1.5v-3.75a.74.74 0 0 0-.071-.31zm-1.878-.44h-3.301v-3.03l1.82-.016zM1.487 6l12.763-.02v9.765h-6.5a2.62 2.62 0 0 0-2.359-1.494c-1.07 0-1.989.646-2.398 1.566l-1.494.015-.012-9.83zm3.904 12a1.126 1.126 0 0 1 0-2.25c.62 0 1.125.505 1.125 1.125S6.011 18 5.391 18m13.735-.006a1.126 1.126 0 0 1 0-2.25c.62 0 1.125.505 1.125 1.125s-.505 1.125-1.125 1.125m2.361-2.25a2.62 2.62 0 0 0-2.361-1.5 2.62 2.62 0 0 0-2.362 1.5H15.75V8.242l1.5-.014v3.767c0 .415.335.75.75.75h4.5v3h-1.014"/></svg>
